Obsidian/status/16s/twitch-indicator.svg

<svg height="16" width="16" xmlns="http://www.w3.org/2000/svg"><path d="m2 1v11h3v3l3-3h4l3-3v-8zm3 3h2v5h-2zm5 0h2v5h-2z" fill="#d3dae3" fill-rule="evenodd"/></svg>

<svg xmlns="http://www.w3.org/2000/svg" width="16" height="16" version="1.1">
 <defs>
  <style id="current-color-scheme" type="text/css">
   .ColorScheme-Text { color:#d3dae3; } .ColorScheme-Highlight { color:#5294e2; }
  </style>
 </defs>
 <path style="fill:currentColor;fill-rule:evenodd" class="ColorScheme-Text" d="M 2 1 L 2 12 L 5 12 L 5 15 L 8 12 L 12 12 L 15 9 L 15 1 L 2 1 z M 5 4 L 7 4 L 7 9 L 5 9 L 5 4 z M 10 4 L 12 4 L 12 9 L 10 9 L 10 4 z"/>
</svg>
